X: 1
T: Spanish Dance
M: 6/8
L: 1/8
R: jig
K: Amaj
cd|e2e f2e|c2c e2c|B2B BAB|c3 Acd|
e2e f2e|c2c e2c|B2B BAB|A3 A2 a|
g2e efg|g2e e2f|d2e c2d|BAB B2 a|
g2e efg|g2f f2e|^d2B Bcd|cgf ecd|
